N
mine
DI
DJ
j
d
ii
si
sj
test
x
area
c
buy
res
ans
cnt
k
zip
o
origin
curr
must
l
best
to
INF
iiii
jjjj
L
word
num
ngen
dest
bbest
right
tr
T
len
last
mid
A
typ
cache
sum
used
used
B
node
side
maxr
end
prevgr
low
testcases
M
temp
place
C
chk
deck1
sum1
that
arr
c1
S1
aa
adj
tt
fg
indeg
gg
val
zz
tx
buf
cs
xdelta
ydelta
dx
buf2
index
base
zero
dpall
dpone
t1
t2
t3
LL
maxn
type
from
step
tar
ct
s2
ret
avg
avg2
a1
p1
p2
rate
state
idx
v1
center
sz
msk
ret1
ret2
tmp
final
Res
ans2
ans1
sp
xx
yy
nx
ny
total
tans
me
numzeroa
start
numvisited
d1
map
str
pos
size
tn
prebox
pretoy
cc
head
tmpn
tsum
MAX
dis
mod
fact
long
high
tp
csize
ppow
chainsize
moves
stars
gain
level
pass
kp
Lsum
dist
situation
radius
round
line
firstpos
int
ull
uint
uchar
oo
eps
sn
ten
ok
yes
now
pi
pj
pi1
pj1
pi2
pj2
post
found
lose
maxe
q
W
X0
bel
dep
can1
dd
Nao
Ken
Played
count
table
V
mint
row
flag
debug
Con
mass
pts
artis
hamle
minn
bos
dy
valid
vx
vy
r1
mask
lc
fail
max1
n2
GG
done
naomi
hlp
div
cl
double
double
opp
Empty
Mine
Click
cell
field
pairs
column
time
farm
win
epsilon
answer
card
result
oc0
dc0
dc1
fd
P1
it2
edje2
city
output
nm
ds
g1
bit
swpos
par
chc
mx1
chsz
sv
cst
py
nss
sns
inf
warout
warout2
pc
flip
inv
rightpos
average
numnodes
same
biggest
front
weight
startf
board
cost
count1
xor
xor1
ctr
cut
totaltest
data
root
top
mind
x0
depth
left
p10
s0
int64
uint64
Max
Matrix
Size
y1
x2
y2
y0
x3
y3
x4
y4
set
key
R1
R2
R3
Id
argc
args
alpha
p0
new
beta
M1
maxs
maxnodes
edge
ID
father
minj
maxj
counter
other
maxedge
src
c2
Q
exp
ff
H
fx
sign
hor
sign1
dir
dir1
min1
f1
f3
MAXN
MAXM
bits
whomsk
caseid
dscore
wscore
var
EPS
BIG
sel
numcases
sx
speed
timer
curnum
add
go
serv
Time
finish
buffer
perm
river
qa
encoded
plain
scen
rem
source
i64
Price
parts
how
many
upto
rx
dim
Y
ctr2
ptr
grid
border
minval
pred
toposort
nxt
maxval
here
loc
cap
flg
lb
db
opt
ans0
nans
cans
NIT
avc
avu
avv
avy
m0
cfd
dres
suma
besttime
time1
dt
ls
kk
MD
len2
cnum
mark
bestj
maxh
n4
zdis
Test
Input
Degree
Cnt
Dx
Dy
u1
d2
u2
h1
tests
cookies
old
Cmp
org
Dig
Dig
cmp
cmp
cmp
radix
zeros
newmask
oops
maxi
howmany
MAXLEN
color
trie
without
threshold
ULL
Buff
pot10
nju
sol
fair
surp
cando
Num
fairs
diff
easy
sofarsogood
tempkeystrokes
v0
timespan
novo
tip
useful
rek1
rek2
frac
goal
needs
maze
real
real
Char
earn
steps
prob
ways
trans
money
fee
days
deltat
neib
closure
balance
td
fy
fb
count2
ecset
dadx
cornerset
edgeset
req
ceil
f0
hh
point
ken
non
cards
ooo
inside
change
ssum
kkk
fuck
sup
shijian
judge
fen
zong
brr
nimabi
yao
hnow
Sum
outlet
elec
transfer
character
history
tmp2
Int
ind1
rb
cps
Cards
second
length
slash
res1
buf1
ress
kol
razn
sb
sd
Number
build
rows
stupid
Solution
Vertex
next
Step
median
position
previous
series
Length
Edge
flow
Flow
vertices
worst
Nodes
current
String
Inv
dpl
bm
m2
res2
possibilities
todel
deleted
launch
solver
Tests
colsz
curspeed
overall
arr1
cntok
value
mindiv
curdif
cursign
curx
cury
smres
mm
tox
lx
curcnt
maxres
curres
Case
dev
small
farms
sumbig
bst
u64
remain
device
parent
tch
tcnt
action
MODULE
Trains
single
deceitful
free
number
outlets
devices
pattern
amount
switches
trash
permut
odds
servers
subset
indices
minim
sizes
zx
itest
l2
fld
w1
hd
wt
map1
cross
bt
conj
TC
CC
ans3
rest
din
cx
cy
tx1
tx2
dist1
dist2
key2
LD
q2
q1
qu
qa0
farmtime
newtime
trim
children
buffer1
buffer2
changes
power
sep
uli
nops
neq
sq
minc
nswaps
fls
Deceitful
War
Farm
Cost
val1
val2
Add
Ans
Let
identical
It
Cur
Chains
v2
pv
Ind
yn
xa
Com
Prefix
comp
empty
Groups
Rem
New
Left
srt
Val
Down
VM
EM
cv
cw
minx
PROB
NUM
casos
incf
incc
qtt
newla
newlb
newlk
maxim
aux
diffy
diffx
diffl
maps
To
dig
nnum
ST
inp
nlast
vals
CE
MC
MF
fine
bad
TEST
have
qb
PI
DB
a2
ncases
cheat
make
full
fullrows
two
nhalf
startones
wantones
arg1
arg2
Max1
argv
Answers
Outlets
XY
Count
Cars
Start
Only
ansy
grp
bot
maxl
ctot
aim
tos
extra
local
before
bcnt
short
Same
result1
bottom
result2
levelr
save
NONE
bans
chg
pcnt
match
graph
MAXN1
MAXN2
matching
MIN
Per
path
cnt1
ecnt
mines
rpm
maxm
cntbest
maxid
nr
left1
subtree
Cache
degree
my
NDIR
cutoff
target
NODE
SIZE
sink
forward
Cap
Cap
Rev
pind
cind
push
pw
toleft
water
Level
dst
waiting
passed
love
p3
p4
solx
soly
dstr
oprob
needp
DOUBLE
decode
cursum
Surp
correct
Prob
cum
Correct
CJ
dwar
nst
nfs
kst
kfs
loose
matrix
ofr
ofc
seconds
reswch
TT
init
Inc
intersect
ints
indx
cont
mpsdd
mpsmfwe
nmpde
mpdaste
N3
N4
HH
pp1
b1
b2
b3
ana
down
ddown
Cases
sc1
bp
fmt
dst2
ddi
ddj
imax
iw
inext
map2
check
df
px
NN
bridge
fork
nscore
elapsed
produce
buyfarm
reachx
flopcount
gap
dummy
added
items
Tot
bkol
tkol
bcur
tcur
was
sum2
Good
MN
gx
Sqr
indegree
loop
rmap
rlen
mindeg
minans
inputs
totale
Give
OFFSET
Loga
lastact
lli
swing
variables
sat
Board
yx
filename
okcnt
nstates
memo
Mod
sigt
Sbuf
lcp
Occ
Check
Best
back
Map
TST
Ai
Aj
anst
i0
j0
h0
kol2
kol1
nmax
iter
tmp1
qh
l10
rots
N0
points
sum0
toa
btoa
fh
minbtoa
bh
h2
hst
minh
qq
normal
BA
DX
brd
kase
lgp
sch
rh
rf
tg
mapping
pop
aaa
bbb
NOGOOD
KK
LLL
offset
vp
nowdiff
trains
connected
mult
edgecount
verts
ITER
row1
nmask
enclosed
vt
mino
amt
cdt
qleft
posx
prime
curdist
tempx
initx
tempdist
factx
movx
nextx
prevx
jcase
icase
kal
hibas10
pangkat
ctemp
lv1
typed
ptyped
pfalse
wlev
idpop
l3
l4
Pool
Ptr
SOURCE
mask0
ntest
ctrx
pivot
ch1
temp1
parents
List
Path
Capacity
shift
xgo
ygo
MAXX
upd
star1
star2
i1j
ij1
cikj
strs
que
cnk
bon
foi
qnt
muda
lol
has
krok
liczba
wynik
ile1
ile2
ttw
maks
pocz
kon
lewo
prawo
dol
arr2
possible
dbl
vn
fff
vs
ttl
CASE
cnt2
layout
black
LIM
w2
loh
maxc
mincount
stable
smax
turn
maxp
ppp
numi
reti
tries
delim
FP
dxdy2ce
syu
TESTES
cauda
valor
ja
fim
pode
soma
contador
tcol
at1
tempo
gambi
tenho
Bom
Ruim
nota
falta
precisa
PD
custo
MAXK
casenum
digit
maxb
play
ret3
speed1
speed2
maxx
reta
retb
filled
needed
shifts
Box
Remaining
Toy
Remaining
produced
achieved
remaining
contestants
Value
total1
total2
Restant
range
until
